src/images/ic-back.svg

<svg width="16" height="16" fill="none" xmlns="http://www.w3.org/2000/svg">
  <path fill-rule="evenodd" clip-rule="evenodd" d="M11 3H9v2H7v2H5v2h2v2h2v2h2v-2H9V9H7V7h2V5h2V3z" fill="#FAFAFF"/>
</svg>

<svg width="16" height="16" viewBox="0 0 16 16" fill="none" xmlns="http://www.w3.org/2000/svg">
  <path fill-rule="evenodd" clip-rule="evenodd" d="M11 3H9V5H7V7H5V9H7V11H9V13H11V11H9V9H7V7H9V5H11V3Z" fill="#FAFAFF"/>
</svg>
